!!!!SEGMENT: pl-kk--kk-i-7--081_gorczycki-grzegorz-gerwazy--dignare-me-laudare-te.krn
!!!cenid: 16xx:920
!!!COM: Gorczycki, Grzegorz Gerwazy
!!!COM-rismID: pe30009207
!!!CDT: ~1666-1734/04/30
!!!CNT: Polish
!!!OTL: Dignare me laudare te
!!!PDT:
!!!AGN: Sacred
!!!SMS-siglum: PL-Kk
!!!SMS-shelfmark: Kk.I.7
!!!SMS-shelfwork: 081 W
!!!SMS-variant:
!!!SMS-altvar:
!!!NIFC-rismSourceID: 300258077
!!!NIFC-rismChildID: 300258158
!!!NIFC-islandoraID: pl-kk:1956
!!!URL-pdf-islandora: https://repozytorium.nifc.pl/islandora/object/pl-kk%3A1956/datastream/PDF/view
!!!URL-scan: https://polish.musicsources.pl/pl/lokalizacje/galeria/rekopisy/6140 @EN{Scan on Polish Music Sources Website} @PL{Skany w portalu Dziedzictwo Muzyki Polskiej w otwartym dostępie}
!!!ONB-nifc: UWAGA: C (skan 0070 , s.22-23), A (brak), T (0233, s.22-23), B (0320, s.22-23). Następny utwór: Tota pulchra es Maria
!!!AIN: 1 alto 1 bass 1 soprn 1 tenor
!!!key:
**kern	**text	**kern	**text	**kern	**kern	**text
*part4	*part4	*part3	*part3	*part2	*part1	*part1
*staff4	*staff4	*staff3	*staff3	*staff2	*staff1	*staff1
*Ibass	*	*Itenor	*	*Ialto	*Isoprn	*
*I"BASSVS.	*	*I"TENOR.	*	*I"ALTVS.	*I"CANTVS.	*
*I'B	*	*I'T	*	*I'A	*I'S	*
*clefF4	*	*clefC4	*	*clefC3	*clefC1	*
*k[]	*	*k[]	*	*k[]	*k[]	*
*d:	*	*d:	*	*d:	*d:	*
*M2/1	*	*M2/1	*	*M2/1	*M2/1	*
*met(C|)	*	*met(C|)	*	*met(C|)	*met(C|)	*
=1-	=1-	=1-	=1-	=1-	=1-	=1-
!LO:TX:a:B:t=I. \nDe Eadem \nB.V.M.	!	!LO:TX:a:B:t=I.	!	!	!LO:TX:a:B:t=I. \nDe Eadem \nB.V.M.	!
00r	.	1d	Dig-	0ryy	00r	.
*	*	*2\right	*	*	*	*
.	.	2d\	-na-	.	.	.
!	!	!LO:TX:t=P:problem=kreska pseudotaktowa	!	!	!	!
.	.	2c#X\	-re	.	.	.
=2-	=2-	=2-	=2-	=2-	=2-	=2-
.	.	2d\	me	0ryy	.	.
!	!	!LO:TX:t=P:problem=kreska pseudotaktowa	!	!	!	!
.	.	2A/	lau-	.	.	.
.	.	4d\	-da-	.	.	.
.	.	4cny\	.	.	.	.
.	.	4d\	.	.	.	.
.	.	4e\	.	.	.	.
=3-	=3-	=3-	=3-	=3-	=3-	=3-
!	!	!	!	!	!LO:TX:t=P:problem=kreska pseudotaktowa	!
00r	.	2f\	.	0ryy	0r	.
.	.	4e\	.	.	.	.
!	!	!LO:TX:t=P:problem=kreska pseudotaktowa	!	!	!	!
.	.	4d\	.	.	.	.
.	.	4c\	.	.	.	.
.	.	4B-X\	.	.	.	.
.	.	4A/	.	.	.	.
!	!	!LO:TX:t=P:problem=kreska pseudotaktowa	!	!	!	!
.	.	4G/	.	.	.	.
=4-	=4-	=4-	=4-	=4-	=4-	=4-
!	!	!	!	!	!LO:TX:t=P:problem=kreska pseudotaktowa	!
.	.	4F/	.	0ryy	1dd	Dig-
.	.	4D/	.	.	.	.
.	.	4F/	.	.	.	.
.	.	4G/	.	.	.	.
*	*	*	*	*	*2\right	*
.	.	2A/	.	.	2dd\	-na-
!	!	!LO:TX:t=P:problem=kreska pseudotaktowa	!	!	!LO:TX:t=P:problem=kreska pseudotaktowa	!
.	.	2A/	-re	.	2cc#X\	-re
=5-	=5-	=5-	=5-	=5-	=5-	=5-
!LO:TX:t=P:problem=kreska pseudotaktowa	!	!	!	!	!	!
1r	.	2D,/	Te	0ryy	2dd\	me
.	.	2d\	lau-	.	2a\	lau-
1D	Dig-	2A/	-da-	.	4dd\	-da-
.	.	.	.	.	4ccny\	.
!	!	!LO:TX:t=P:problem=kreska pseudotaktowa	!	!	!	!
.	.	2F/	-re	.	4dd\	.
!	!	!	!	!	!LO:TX:t=P:problem=kreska pseudotaktowa	!
.	.	.	.	.	4ee\	.
=6-	=6-	=6-	=6-	=6-	=6-	=6-
2D/	-na-	2D,/	Te	0ryy	2ff\	.
!LO:TX:t=P:problem=kreska pseudotaktowa	!	!	!	!	!	!
2C#X/	-re	2A/	lau-	.	2ee\	.
2D/	me	1A	-da-	.	2dd\	.
!LO:TX:t=P:problem=kreska pseudotaktowa	!	!	!	!	!	!
2AA/	lau-	.	.	.	4cc\	.
!	!	!	!	!	!LO:TX:t=P:problem=kreska pseudotaktowa	!
.	.	.	.	.	4b\	.
=7-	=7-	=7-	=7-	=7-	=7-	=7-
4D/	-da-	2A,/	-re	0ryy	2.a\	.
4Cny/	.	.	.	.	.	.
*	*	*	*ij	*	*	*
4D/	.	2F/	lau-	.	.	.
!LO:TX:t=P:problem=kreska pseudotaktowa	!	!	!	!	!LO:TX:t=P:problem=kreska pseudotaktowa	!
4E/	.	.	.	.	4g\	.
*2\right	*	*	*	*	*	*
2F\	.	1c	-da-	.	4a\	.
.	.	.	.	.	4b\	.
4E\	.	.	.	.	4cc\	.
!	!	!	!	!	!LO:TX:t=P:problem=kreska pseudotaktowa	!
4D\	.	.	.	.	4dd\	.
=8-	=8-	=8-	=8-	=8-	=8-	=8-
4C/	.	2c\	-re	0ryy	4ee\	.
*	*	*	*Xij	*	*	*
4BB/	.	.	.	.	4dd\	.
*	*	*custos:d	*	*	*	*
!	!	!LO:TX:t=P:problem=kreska pseudotaktowa	!	!	!	!
4AA/	.	2r	.	.	4cc\	.
!LO:TX:t=P:problem=kreska pseudotaktowa	!	!	!	!	!LO:TX:t=P:problem=kreska pseudotaktowa	!
4GG/	.	.	.	.	4b\	.
!	!	!LO:LB:g=original	!	!	!	!
!	!	!LO:TX:t=P:problem=kreska pseudotaktowa	!	!	!	!
4FF/	.	1d	Dig-	.	4a\	.
4DD/	.	.	.	.	4g\	.
4FF/	.	.	.	.	4a\	.
!	!	!	!	!	!LO:TX:t=P:problem=kreska pseudotaktowa	!
4GG/	.	.	.	.	4b\	.
=9-	=9-	=9-	=9-	=9-	=9-	=9-
2AA/	.	2d\	-na-	0ryy	2a\	.
!LO:TX:t=P:problem=kreska pseudotaktowa	!	!	!	!	!LO:TX:t=P:problem=kreska pseudotaktowa	!
2AA/	-re	2c#X\	-re	.	2a\	-re
2D\	Te	2.d\	me	.	2a,\	Te
!LO:TX:t=P:problem=kreska pseudotaktowa	!	!	!	!	!	!
2F\	lau-	.	.	.	2dd\	dig-
!	!	!LO:TX:t=P:problem=kreska pseudotaktowa	!	!	!	!
.	.	4A/	lau-	.	.	.
=10-	=10-	=10-	=10-	=10-	=10-	=10-
1E	-da-	2G/	-da-	0ryy	2dd\	-na-
!	!	!	!	!	!LO:TX:t=P:problem=kreska pseudotaktowa	!
.	.	2G/	-re	.	2cc#X\	-re
2D,/	-re	2F/	Te	.	2dd\	me
*custos:E	*	*	*	*	*	*
!LO:TX:t=P:problem=kreska pseudotaktowa	!	!	!	!	!LO:TX:t=P:problem=kreska pseudotaktowa	!
2AA/	lau-	2A\	lau-	.	2ccn\	lau-
!LO:LB:g=original	!	!	!	!	!LO:LB:g=original	!
=11-	=11-	=11-	=11-	=11-	=11-	=11-
2E\	-da-	4Bn\	-da-	0ryy	2b\	-da-
.	.	4c\ny	.	.	.	.
!LO:TX:t=P:problem=kreska pseudotaktowa	!	!	!	!	!	!
2E\	-re	4d\	.	.	2b\	-re
!	!	!LO:TX:t=P:problem=kreska pseudotaktowa	!	!	!	!
.	.	4e\	.	.	.	.
2AA,/	Te	4c\	.	.	2a,\	Te,
.	.	4A\	.	.	.	.
!	!	!	!	!	!LO:TX:t=P:problem=kreska pseudotaktowa	!
2A\	dig-	2c\	.	.	2a\	lau-
=12-	=12-	=12-	=12-	=12-	=12-	=12-
2A\	-na-	2B\	.	0ryy	4b\	-da-
.	.	.	.	.	4cc\	.
!LO:TX:t=P:problem=kreska pseudotaktowa	!	!LO:TX:t=P:problem=kreska pseudotaktowa	!	!	!	!
2G#X\	-re	2B\	-re	.	4dd\	.
.	.	.	.	.	4ee\	.
2A\	me	2A,/	Te	.	4cc\	.
.	.	.	.	.	4a\	.
!	!	!LO:TX:t=P:problem=kreska pseudotaktowa	!	!	!LO:TX:t=P:problem=kreska pseudotaktowa	!
2E\	lau-	2G#X/	lau-	.	2b\	-re
=13-	=13-	=13-	=13-	=13-	=13-	=13-
2A\	-da-	2A/	-da-	0ryy	2a\	Te,
4Gny\	.	1d	.	.	2g/	lau-
!LO:TX:t=P:problem=kreska pseudotaktowa	!	!	!	!	!	!
4F\	.	.	.	.	.	.
2E\	.	.	.	.	2g/	-da-
!	!	!LO:TX:t=P:problem=kreska pseudotaktowa	!	!	!	!
2E\	-re	2c#X\	-re	.	2e/	-re
=14-	=14-	=14-	=14-	=14-	=14-	=14-
!	!	!	!	!	!LO:TX:t=P:problem=kreska pseudotaktowa	!
2D,/	Te	1d	Te	0ryy	1a	Te
!LO:TX:t=P:problem=kreska pseudotaktowa	!	!	!	!	!	!
2D/	Vir-	.	.	.	.	.
2D/	-go	2r	.	.	00r	.
!	!	!LO:TX:t=P:problem=kreska pseudotaktowa	!	!	!	!
2C/	sac-	2A\	Vir-	.	.	.
=15-	=15-	=15-	=15-	=15-	=15-	=15-
2D\	-ra-	2A/	-go	0ryy	.	.
2E\	.	2Gny/	sa-	.	.	.
2F\	.	2A\	-cra-	.	.	.
!	!	!LO:TX:t=P:problem=kreska pseudotaktowa	!	!	!	!
4E\	.	2Bn\	.	.	.	.
!LO:TX:t=P:problem=kreska pseudotaktowa	!	!	!	!	!	!
4D\	.	.	.	.	.	.
=16-	=16-	=16-	=16-	=16-	=16-	=16-
4C/	.	2cny\	.	0ryy	.	.
4D/	.	.	.	.	.	.
4E/	.	4B\	.	.	.	.
!LO:TX:t=P:problem=kreska pseudotaktowa	!	!LO:TX:t=P:problem=kreska pseudotaktowa	!	!	!	!
4F/	.	4A\	.	.	.	.
!	!	!	!	!	!LO:TX:t=P:problem=kreska pseudotaktowa	!
2G\	.	4G/	.	.	0r	.
.	.	4A/	.	.	.	.
4F\	.	4B/	.	.	.	.
*	*	*custos:d	*	*	*	*
!	!	!LO:TX:t=P:problem=kreska pseudotaktowa	!	!	!	!
4E\	.	4c/	.	.	.	.
=17-	=17-	=17-	=17-	=17-	=17-	=17-
4D\	.	2.d\	.	0ryy	.	.
4E\	.	.	.	.	.	.
4F\	.	.	.	.	.	.
*custos:A	*	*	*	*	*	*
!LO:TX:t=P:problem=kreska pseudotaktowa	!	!	!	!	!	!
4G\	.	8c\L	.	.	.	.
!	!	!LO:TX:t=P:problem=kreska pseudotaktowa	!	!	!	!
.	.	8B\J	.	.	.	.
!LO:LB:g=original	!	!	!	!	!	!
2A\	.	1A	.	.	2r	.
!	!	!	!	!	!LO:TX:t=P:problem=kreska pseudotaktowa	!
2AA/	.	.	.	.	2a\	Vir-
=18-	=18-	=18-	=18-	=18-	=18-	=18-
2D\	-ta	2A/	-ta	0ryy	2a\	-go
!LO:TX:t=P:problem=kreska pseudotaktowa	!	!LO:TX:t=P:problem=kreska pseudotaktowa	!	!	!	!
2r	.	2r	.	.	2g\	sa-
00r	.	0r	.	.	2a\	-cra-
!	!	!	!	!	!LO:TX:t=P:problem=kreska pseudotaktowa	!
.	.	.	.	.	2b\	.
=19-	=19-	=19-	=19-	=19-	=19-	=19-
.	.	.	.	0ryy	2cc\	.
.	.	.	.	.	4b\	.
!	!	!	!	!	!LO:TX:t=P:problem=kreska pseudotaktowa	!
.	.	.	.	.	4a\	.
!	!	!LO:TX:t=P:problem=kreska pseudotaktowa	!	!	!	!
.	.	1r	.	.	4g\	.
.	.	.	.	.	4a\	.
.	.	.	.	.	4b\	.
.	.	.	.	.	4cc\	.
=20-	=20-	=20-	=20-	=20-	=20-	=20-
.	.	1d	Dig-	0ryy	2.dd\	.
.	.	.	.	.	8cc\L	.
!	!	!	!	!	!LO:TX:t=P:problem=kreska pseudotaktowa	!
.	.	.	.	.	8b\J	.
00r	.	2d\	-na-	.	1a	.
!	!	!LO:TX:t=P:problem=kreska pseudotaktowa	!	!	!	!
.	.	2c#X\	-re	.	.	.
=21-	=21-	=21-	=21-	=21-	=21-	=21-
!	!	!	!	!	!LO:TX:t=P:problem=kreska pseudotaktowa	!
.	.	2d\	me	0ryy	1a	-ta
!	!	!LO:TX:t=P:problem=kreska pseudotaktowa	!	!	!	!
.	.	2A/	lau-	.	.	.
!	!	!	!	!	!LO:TX:t=P:problem=kreska pseudotaktowa	!
.	.	4d\	-da-	.	0r	.
.	.	4cny\	.	.	.	.
.	.	4d\	.	.	.	.
!	!	!LO:TX:t=P:problem=kreska pseudotaktowa	!	!	!	!
.	.	4e\	.	.	.	.
=22-	=22-	=22-	=22-	=22-	=22-	=22-
.	.	2f\	.	0ryy	.	.
.	.	2e\	.	.	.	.
00	.	2d\	.	.	2r	.
!	!	!	!	!	!LO:TX:t=P:problem=kreska pseudotaktowa	!
.	.	2c\	.	.	2a\	Vir-
=23-	=23-	=23-	=23-	=23-	=23-	=23-
!	!	!LO:TX:t=P:problem=kreska pseudotaktowa	!	!	!	!
.	.	1B-X	.	0ryy	2a\	-go
.	.	.	.	.	2g\	sa-
.	.	2A/	.	.	2.a\	-cra-
.	.	2F/	.	.	.	.
!	!	!	!	!	!LO:TX:t=P:problem=kreska pseudotaktowa	!
.	.	.	.	.	4b-X\	.
=24-	=24-	=24-	=24-	=24-	=24-	=24-
.	.	1.c	.	0ryy	4cc\	.
.	.	.	.	.	4b-X\	.
.	.	.	.	.	4a\	.
*	*	*	*	*	*custos:b	*
!	!	!	!	!	!LO:TX:t=P:problem=kreska pseudotaktowa	!
.	.	.	.	.	4f/	.
!LO:TX:t=P:problem=kreska pseudotaktowa	!	!	!	!	!LO:LB:g=original	!
1rA	.	.	.	.	4b-X\	.
.	.	.	.	.	4a\	.
!	!	!LO:TX:t=P:problem=kreska pseudotaktowa	!	!	!LO:TX:t=P:problem=kreska pseudotaktowa	!
.	.	2c\	-re	.	2g\	.
=25-	=25-	=25-	=25-	=25-	=25-	=25-
!	!	!	!	!	!LO:TX:t=P:problem=kreska pseudotaktowa	!
2r	.	1F	Te.	0ryy	1a	-ta
2D\	Vir-	.	.	.	.	.
2D/	-go	2r	.	.	0r	.
!LO:TX:t=P:problem=kreska pseudotaktowa	!	!LO:TX:t=P:problem=kreska pseudotaktowa	!	!	!	!
2C/	sa-	2A\	Vir-	.	.	.
=26-	=26-	=26-	=26-	=26-	=26-	=26-
2D\	-cra-	2A/	-go	0ryy	.	.
2E\	.	2G/	sa-	.	.	.
!	!	!	!	!	!LO:TX:t=P:problem=kreska pseudotaktowa	!
2F\	.	2A\	-cra-	.	1r	.
4E\	.	2Bny\	.	.	.	.
!LO:TX:t=P:problem=kreska pseudotaktowa	!	!	!	!	!	!
4D\	.	.	.	.	.	.
=27-	=27-	=27-	=27-	=27-	=27-	=27-
4C/	.	2c\	.	0ryy	2r	.
4D/	.	.	.	.	.	.
4E/	.	4B\	.	.	2cc\	Vir-
*	*	*custos:G	*	*	*	*
!	!	!LO:TX:t=P:problem=kreska pseudotaktowa	!	!	!	!
4F/	.	4A\	.	.	.	.
!	!	!LO:LB:g=original	!	!	!	!
2G\	.	4G/	.	.	2bn\	-go
.	.	4A/	.	.	.	.
!	!	!	!	!	!LO:TX:t=P:problem=kreska pseudotaktowa	!
4F\	.	4B/	.	.	2g/	sac-
!LO:TX:t=P:problem=kreska pseudotaktowa	!	!LO:TX:t=P:problem=kreska pseudotaktowa	!	!	!	!
4E\	.	4c/	.	.	.	.
=28-	=28-	=28-	=28-	=28-	=28-	=28-
4D\	.	2d\	.	0ryy	2dd\	-ra-
4E\	.	.	.	.	.	.
!	!	!	!	!	!LO:TX:t=P:problem=kreska pseudotaktowa	!
4F\	.	4c\	.	.	2dd\	-ta
!	!	!LO:TX:t=P:problem=kreska pseudotaktowa	!	!	!	!
4G\	.	4B\	.	.	.	.
2A\	.	2.A/	.	.	2r	.
2AA/	.	.	.	.	2a\	Vir-
!	!	!LO:TX:t=P:problem=kreska pseudotaktowa	!	!	!	!
.	.	4G/	.	.	.	.
=29-	=29-	=29-	=29-	=29-	=29-	=29-
2D/	-ta	2F#X/	-ta	0ryy	2a\	-go
!LO:TX:t=P:problem=kreska pseudotaktowa	!	!LO:TX:t=P:problem=kreska pseudotaktowa	!	!	!LO:TX:t=P:problem=kreska pseudotaktowa	!
2r	.	2r	.	.	2g/	sac-
!	!	!LO:TX:t=P:problem=kreska pseudotaktowa	!	!	!	!
2r	.	1r	.	.	2.a\	-ra-
!LO:TX:t=P:problem=kreska pseudotaktowa	!	!	!	!	!	!
2A\	Vir-	.	.	.	.	.
.	.	.	.	.	4bn\	.
=30-	=30-	=30-	=30-	=30-	=30-	=30-
2A\	-go	1A	sa-	0ryy	2cc\	.
*custos:E	*	*	*	*	*	*
!LO:TX:t=P:problem=kreska pseudotaktowa	!	!	!	!	!	!
2D\	sa-	.	.	.	4b\	.
!	!	!	!	!	!LO:TX:t=P:problem=kreska pseudotaktowa	!
.	.	.	.	.	4a\	.
!LO:LB:g=original	!	!	!	!	!	!
1E	-cra-	2A/	-cra-	.	2g#X/	.
!	!	!LO:TX:t=P:problem=kreska pseudotaktowa	!	!	!	!
.	.	2G#X/	.	.	2ee\	.
=31-	=31-	=31-	=31-	=31-	=31-	=31-
2AA,/	-ta	2A/	-ta	0ryy	2cc#X\	.
*	*ij	*	*	*	*	*
!	!	!LO:TX:t=P:problem=kreska pseudotaktowa	!	!	!	!
2A\	Vir-	2r	.	.	2a\	.
2F\	-go	2r	.	.	2dd\	.
!LO:TX:t=P:problem=kreska pseudotaktowa	!	!	!	!	!LO:TX:t=P:problem=kreska pseudotaktowa	!
2D/	sa-	2d\	vir-	.	2dd\	-ta
=32-	=32-	=32-	=32-	=32-	=32-	=32-
!	!	!	!	!	!LO:TX:t=P:problem=kreska pseudotaktowa	!
4A\	-cra-	2c#X\	-go	0ryy	1r	.
4G\	.	.	.	.	.	.
!	!	!LO:TX:t=P:problem=kreska pseudotaktowa	!	!	!	!
2F\	.	2A/	sa-	.	.	.
2E,\	-ta	4B\	-cra-	.	2r	.
*	*Xij	*	*	*	*	*
.	.	4c#\	.	.	.	.
!LO:TX:t=P:problem=kreska pseudotaktowa	!	!	!	!	!LO:TX:t=P:problem=kreska pseudotaktowa	!
2D/	sa-	2d\	.	.	2a\	sac-
=33-	=33-	=33-	=33-	=33-	=33-	=33-
1.A	-cra-	2c#X\	.	0ryy	4a\	-ra-
.	.	.	.	.	4gny\	.
.	.	1d	.	.	4f/	.
.	.	.	.	.	4d/	.
.	.	.	.	.	1a	.
2AA/	.	2c#X\	.	.	.	.
=34-	=34-	=34-	=34-	=34-	=34-	=34-
0Dl;	-ta.	0dl;	-ta	0ryy	0al;	-ta.
!	!	!	!	!	!LO:PB:g=original	!
=35||	=35||	=35||	=35||	=35||	=35||	=35||
*M2/1	*	*M2/1	*	*	*M2/1	*
*met(C|)	*	*met(C|)	*	*	*met(C|)	*
!	!	!	!	!	!LO:TX:t=P:problem=kreska pseudotaktowa	!
00r	.	00r	.	0ryy	1r	.
.	.	.	.	.	1d	Da
=36-	=36-	=36-	=36-	=36-	=36-	=36-
!	!	!	!	!	!LO:TX:t=P:problem=kreska pseudotaktowa	!
.	.	.	.	0ryy	1a	mi-
.	.	.	.	.	(4a\	-hi
.	.	.	.	.	4g\)	.
.	.	.	.	.	(4a\	vir-
.	.	.	.	.	4b\)	.
=37-	=37-	=37-	=37-	=37-	=37-	=37-
!	!	!	!	!	!LO:TX:t=P:problem=kreska pseudotaktowa	!
00r	.	00r	.	0ryy	1cc	-tu-
.	.	.	.	.	4b\	.
.	.	.	.	.	4a\	.
.	.	.	.	.	4b\	.
!	!	!	!	!	!LO:TX:t=P:problem=kreska pseudotaktowa	!
.	.	.	.	.	4dd\	.
=38-	=38-	=38-	=38-	=38-	=38-	=38-
.	.	.	.	0ryy	4cc#X\	.
.	.	.	.	.	4a\	.
.	.	.	.	.	1dd	.
!	!	!	!	!	!LO:TX:t=P:problem=kreska pseudotaktowa	!
.	.	.	.	.	2cc#X\	.
=39-	=39-	=39-	=39-	=39-	=39-	=39-
!LO:TX:t=P:problem=kreska pseudotaktowa	!	!LO:TX:t=P:problem=kreska pseudotaktowa	!	!	!	!
1r	.	0r	.	0ryy	2dd,\	-tem
.	.	.	.	.	2.a\	con-
1AA	Da	.	.	.	.	.
.	.	.	.	.	4g/	.
.	.	.	.	.	4f/	.
!	!	!	!	!	!LO:TX:t=P:problem=kreska pseudotaktowa	!
.	.	.	.	.	4e/	.
=40-	=40-	=40-	=40-	=40-	=40-	=40-
1D	mi-	1D	Da	0ryy	2d/	.
.	.	.	.	.	2d,/	-tra
*	*	*	*	*	*	*ij
*	*	*custos:A	*	*	*	*
!	!	!LO:TX:t=P:problem=kreska pseudotaktowa	!	!	!	!
(4D/	-hi	1A	mi-	.	2g/	con-
4C/)	.	.	.	.	.	.
!	!	!	!	!	!LO:TX:t=P:problem=kreska pseudotaktowa	!
(4D/	Vir-	.	.	.	2d/	-tra
*	*	*	*	*	*	*Xij
!LO:TX:t=P:problem=kreska pseudotaktowa	!	!	!	!	!	!
4E/)	.	.	.	.	.	.
!	!	!LO:LB:g=original	!	!	!	!
=41-	=41-	=41-	=41-	=41-	=41-	=41-
!LO:TX:t=P:problem=kreska pseudotaktowa	!	!	!	!	!	!
1F	-tu-	(4A/	-hi	0ryy	2a\	hos-
.	.	4G/)	.	.	.	.
.	.	(4A/	Vir-	.	2f/	-tes
!	!	!LO:TX:t=P:problem=kreska pseudotaktowa	!	!	!	!
.	.	4B/)	.	.	.	.
4E\	.	1c	-tu-	.	2ccny\	tu-
4D\	.	.	.	.	.	.
!	!	!	!	!	!LO:TX:t=P:problem=kreska pseudotaktowa	!
4E\	.	.	.	.	2cc\	-os
!LO:TX:t=P:problem=kreska pseudotaktowa	!	!	!	!	!	!
4F\	.	.	.	.	.	.
=42-	=42-	=42-	=42-	=42-	=42-	=42-
4G\	.	4B\	.	0ryy	2r	.
4D\	.	4A\	.	.	.	.
!	!	!	!	!	!LO:TX:t=P:problem=kreska pseudotaktowa	!
1G	.	4B\	.	.	2g\	da
!	!	!LO:TX:t=P:problem=kreska pseudotaktowa	!	!	!	!
.	.	4d\	.	.	.	.
.	.	4c#X\	.	.	1a	mi-
.	.	4A\	.	.	.	.
*custos:E	*	*	*	*	*	*
!LO:TX:t=P:problem=kreska pseudotaktowa	!	!	!	!	!	!
2F\	.	1d\	.	.	.	.
!LO:LB:g=original	!	!	!	!	!	!
=43-	=43-	=43-	=43-	=43-	=43-	=43-
1E	.	.	.	0ryy	2g/	-hi
!	!	!LO:TX:t=P:problem=kreska pseudotaktowa	!	!	!	!
.	.	2c#X\	.	.	2e/	vir-
!LO:TX:t=P:problem=kreska pseudotaktowa	!	!	!	!	!	!
1D	-tem	2d\	-tem	.	2.a\	-tu-
.	.	1A\	con-	.	.	.
!	!	!	!	!	!LO:TX:t=P:problem=kreska pseudotaktowa	!
.	.	.	.	.	4b\	.
=44-	=44-	=44-	=44-	=44-	=44-	=44-
0r	.	.	.	0ryy	2cc#X\	.
!	!	!LO:TX:t=P:problem=kreska pseudotaktowa	!	!	!	!
.	.	2F/	-tra	.	2.dd\	.
.	.	2F/	hoſ-	.	.	.
.	.	.	.	.	4a\	.
.	.	2G/	-tes	.	1dd\	.
=45-	=45-	=45-	=45-	=45-	=45-	=45-
!LO:TX:t=P:problem=kreska pseudotaktowa	!	!	!	!	!	!
1r	.	1A	tu-	0ryy	.	.
*	*	*	*	*	*custos:dd	*
!	!	!	!	!	!LO:TX:t=P:problem=kreska pseudotaktowa	!
.	.	.	.	.	2cc#X\	.
!	!	!	!	!	!LO:LB:g=original	!
2r	.	2D/	-os	.	2dd\	-tem
!LO:TX:t=P::problem=kreska pseudotaktowa&colon;między nutą a kreską, ligatura	!	!LO:TX:t=P:problem=kreska pseudotaktowa	!	!	!LO:TX:t=P:problem=kreska pseudotaktowa	!
2.A\	con-	2rF	.	.	2r	.
=46-	=46-	=46-	=46-	=46-	=46-	=46-
!	!	!LO:TX:t=P:problem=kreska pseudotaktowa	!	!	!	!
.	.	1r	.	0ryy	2.a\	con-
4G\	.	.	.	.	.	.
4F\	.	.	.	.	.	.
4E\	.	.	.	.	4g\	.
2D/	.	2.d\	con-	.	4f/	-tra
.	.	.	.	.	4d,/	.
!LO:TX:t=P:problem=kreska pseudotaktowa	!	!	!	!	!LO:TX:t=P::problem=kreska pseudotaktowa&colon;między nutą a kropką, ligatura	!
2D/	-tra	.	.	.	2.dd\	Con-
.	.	4cny\	.	.	.	.
=47-	=47-	=47-	=47-	=47-	=47-	=47-
2.G\	con-	4Bn\	.	0ryy	.	.
.	.	4A\	.	.	4ccny\	.
!	!	!LO:TX:t=P:problem=kreska pseudotaktowa	!	!	!	!
.	.	2G/	.	.	4b\	.
4F\	.	.	.	.	4a\	.
4E\	.	2G,/	-tra	.	2g/	.
4D\	.	.	.	.	.	.
!LO:TX:t=P:problem=kreska pseudotaktowa	!	!	!	!	!LO:TX:t=P:problem=kreska pseudotaktowa	!
2C/	.	2.g\	Con-	.	2g/	-tra
=48-	=48-	=48-	=48-	=48-	=48-	=48-
2C/	-tra	.	.	0ryy	2.gg\	con-
.	.	4f\	.	.	.	.
2.c\	con-	4e\	.	.	.	.
!	!	!LO:TX:t=P:problem=kreska pseudotaktowa	!	!	!	!
.	.	4d\	.	.	4ff\	.
.	.	2c\	.	.	4ee\	.
4B\	.	.	.	.	4dd\	.
!	!	!LO:TX:t=P:problem=kreska pseudotaktowa	!	!	!LO:TX:t=P:problem=kreska pseudotaktowa	!
4A\	.	2c\	-tra	.	2cc\	.
4G\	.	.	.	.	.	.
=49-	=49-	=49-	=49-	=49-	=49-	=49-
2F\	.	2r	.	0ryy	2cc\	.
!LO:TX:t=P:problem=kreska pseudotaktowa	!	!	!	!	!	!
2F\	-tra	1d	hos-	.	2a,\	-tra
2G\	hos-	.	.	.	2b\	hos-
!	!	!LO:TX:t=P:problem=kreska pseudotaktowa	!	!	!LO:TX:t=P:problem=kreska pseudotaktowa	!
2D/	-tes	2d\	-tes	.	2a\	-tes
=50-	=50-	=50-	=50-	=50-	=50-	=50-
1AA	tu-	2d\	tu-	0ryy	1a	tu-
*	*	*custos:d	*	*	*	*
!	!	!LO:TX:t=P:problem=kreska pseudotaktowa	!	!	!	!
.	.	2c#X\	.	.	.	.
!	!	!LO:LB:g=original	!	!	!	!
!LO:TX:t=P:problem=kreska pseudotaktowa	!	!	!	!	!LO:TX:t=P:problem=kreska pseudotaktowa	!
1D	-os	2d,\	-os.	.	1f#X	-os
!	!	!LO:TX:t=P:problem=kreska pseudotaktowa	!	!	!	!
.	.	2D/	da	.	.	.
=51-	=51-	=51-	=51-	=51-	=51-	=51-
!	!	!	!	!	!LO:TX:t=P:problem=kreska pseudotaktowa	!
00r	.	1A	mi-	0ryy	1rdd	.
.	.	(4A/	-hi	.	1a	Da
.	.	4G/)	.	.	.	.
.	.	(4A/	Vir-	.	.	.
!	!	!LO:TX:t=P:problem=kreska pseudotaktowa	!	!	!	!
.	.	4B/)	.	.	.	.
=52-	=52-	=52-	=52-	=52-	=52-	=52-
.	.	1cny	-tu-	0ryy	1ee	mi-
.	.	4B\	.	.	(4dd\	-hi
.	.	4A\	.	.	4cc\)	.
.	.	4B\	.	.	(4dd\	vir-
!	!	!	!	!	!LO:TX:t=P:problem=kreska pseudotaktowa	!
.	.	4c\	.	.	4ee\)	.
=53-	=53-	=53-	=53-	=53-	=53-	=53-
0r	.	4d\	.	0ryy	2ff\	-tu-
.	.	4A\	.	.	.	.
.	.	1d	.	.	2dd\	-tem
.	.	.	.	.	2.ee\	con-
!	!	!LO:TX:t=P:problem=kreska pseudotaktowa	!	!	!	!
.	.	2c\	.	.	.	.
.	.	.	.	.	4cc\	-tra
=54-	=54-	=54-	=54-	=54-	=54-	=54-
!LO:TX:t=P:problem=kreska pseudotaktowa	!	!	!	!	!	!
1r	.	1B	.	0ryy	2dd\	hos-
!	!	!	!	!	!LO:TX:t=P:problem=kreska pseudotaktowa	!
.	.	.	.	.	2b\	-tes
*	*	*	*	*	*2\left	*
!	!	!LO:TX:t=P:problem=kreska pseudotaktowa	!	!	!	!
2r	.	1A	-tem	.	2.ee\	con-
*	*	*	*	*	*2\right	*
!LO:TX:t=P::problem=kreska pseudotaktowa&colon;między nutą a kropką, ligatura	!	!	!	!	!	!
2.A\	con-	.	.	.	.	.
.	.	.	.	.	4dd\	.
=55-	=55-	=55-	=55-	=55-	=55-	=55-
!	!	!LO:TX:t=P:problem=kreska pseudotaktowa	!	!	!	!
.	.	1re	.	0ryy	4cc\	.
4G\	.	.	.	.	4b\	.
*	*	*	*	*	*custos:a	*
!	!	!	!	!	!LO:TX:t=P:problem=kreska pseudotaktowa	!
4F\	.	.	.	.	2a\	.
4E\	.	.	.	.	.	.
!	!	!	!	!	!LO:LB:g=original	!
2D/	.	2.d\	con-	.	2a\	-tra
!LO:TX:t=P:problem=kreska pseudotaktowa	!	!	!	!	!	!
2D/	-tra	.	.	.	2.dd\	con-
.	.	4c\	.	.	.	.
!LO:LB:g=original	!	!	!	!	!	!
=56-	=56-	=56-	=56-	=56-	=56-	=56-
2.G\	con-	4B\	.	0ryy	.	.
.	.	4A\	.	.	4cc\	.
!	!	!LO:TX:t=P:problem=kreska pseudotaktowa	!	!	!	!
.	.	2G/	.	.	4b\	.
!	!	!	!	!	!LO:TX:t=P:problem=kreska pseudotaktowa	!
4F\	.	.	.	.	4a\	.
4E/	.	2G,/	-tra	.	2g/	.
4D/	.	.	.	.	.	.
!LO:TX:t=P:problem=kreska pseudotaktowa	!	!	!	!	!LO:TX:t=P:problem=kreska pseudotaktowa	!
2C/	.	2.g\	con-	.	2g/	-tra
=57-	=57-	=57-	=57-	=57-	=57-	=57-
2C,/	-tra	.	.	0ryy	2.gg\	con-
.	.	4f\	.	.	.	.
2.c\	con-	4e\	.	.	.	.
!	!	!LO:TX:t=P:problem=kreska pseudotaktowa	!	!	!	!
.	.	4d\	.	.	4ff\	.
.	.	2c\	.	.	4ee\	.
4B\	.	.	.	.	4dd\	.
!	!	!LO:TX:t=P:problem=kreska pseudotaktowa	!	!	!LO:TX:t=P:problem=kreska pseudotaktowa	!
4A\	.	2c\	-tra	.	2cc\	.
!LO:TX:t=P:problem=kreska pseudotaktowa	!	!	!	!	!	!
4G\	.	.	.	.	.	.
=58-	=58-	=58-	=58-	=58-	=58-	=58-
2F\	.	2r	.	0ryy	2cc,\	-tra
!LO:TX:t=P:problem=kreska pseudotaktowa	!	!	!	!	!	!
2F\	-tra	1d	con-	.	1a	con-
2D/	con-	.	.	.	.	.
!	!	!	!	!	!LO:TX:t=P:problem=kreska pseudotaktowa	!
1G\	.	2d\	-tra	.	2b\	-tra
=59-	=59-	=59-	=59-	=59-	=59-	=59-
.	.	2c#X\	hoſ-	0ryy	2cc#X\	ho-
!LO:TX:t=P:problem=kreska pseudotaktowa	!	!LO:TX:t=P:problem=kreska pseudotaktowa	!	!	!	!
2F\	-tra	2A\	-tes	.	2dd\	.
2E\	hos-	2c#X\	Tu-	.	2ee\	.
!LO:TX:t=P:problem=kreska pseudotaktowa	!	!	!	!	!LO:TX:t=P:problem=kreska pseudotaktowa	!
2D/	-tes	2d\	.	.	2a\	-stes
=60-	=60-	=60-	=60-	=60-	=60-	=60-
!LO:TX:t=P:problem=kreska pseudotaktowa	!	!	!	!	!	!
(1AA	Tu-	2c#X\	.	0ryy	4a\	tu-
.	.	.	.	.	4g\	.
.	.	1d	.	.	4fny/	.
.	.	.	.	.	4d/	.
1AA)	.	.	.	.	1a	.
.	.	2c#X\	.	.	.	.
=61-	=61-	=61-	=61-	=61-	=61-	=61-
0Dl;	-os.	0dl;	-os.	0ryy	0al;	-os.
!	!	!LO:PB:g=original	!	!	!	!
=62||	=62||	=62||	=62||	=62||	=62||	=62||
*M2/1	*	*M2/1	*	*	*M2/1	*
*met(C|)	*	*met(C|)	*	*	*met(C|)	*
00r	.	2r	.	0ryy	00r	.
!	!	!LO:TX:t=P:problem=kreska pseudotaktowa	!	!	!	!
.	.	2d\	A-	.	.	.
.	.	2c\	.	.	.	.
.	.	2B-X\	.	.	.	.
=63-	=63-	=63-	=63-	=63-	=63-	=63-
.	.	2.A/	.	0ryy	.	.
!	!	!LO:TX:t=P:problem=kreska pseudotaktowa	!	!	!	!
.	.	4F/	.	.	.	.
.	.	2.B-X\	.	.	.	.
.	.	4G/	.	.	.	.
=64-	=64-	=64-	=64-	=64-	=64-	=64-
00r	.	2.c\	.	0ryy	0r	.
!	!	!LO:TX:t=P:problem=kreska pseudotaktowa	!	!	!	!
.	.	4A/	.	.	.	.
.	.	2d\	.	.	.	.
.	.	1d\	.	.	.	.
=65-	=65-	=65-	=65-	=65-	=65-	=65-
!	!	!	!	!	!LO:TX:t=P:problem=kreska pseudotaktowa	!
.	.	.	.	0ryy	1r	.
!	!	!LO:TX:t=P:problem=kreska pseudotaktowa	!	!	!	!
.	.	2c#X\	.	.	.	.
.	.	2d\	-men	.	2r	.
!	!	!	!	!	!LO:TX:t=P:problem=kreska pseudotaktowa	!
.	.	2D/	a-	.	2dd\	A-
=66-	=66-	=66-	=66-	=66-	=66-	=66-
*custos:A	*	*	*	*	*	*
!LO:TX:t=P:problem=kreska pseudotaktowa	!	!	!	!	!	!
1r	.	4E/	.	0ryy	2cc\	.
.	.	4F/	.	.	.	.
.	.	4G/	.	.	2b-X\	.
!	!	!LO:TX:t=P:problem=kreska pseudotaktowa	!	!	!	!
.	.	4E/	.	.	.	.
!LO:PB:g=original	!	!	!	!	!	!
2r	.	2F/	-men	.	2a\	.
!LO:TX:t=P:problem=kreska pseudotaktowa	!	!LO:TX:t=P:problem=kreska pseudotaktowa	!	!	!	!
2A\	A-	2rF	.	.	2cc\	.
=67-	=67-	=67-	=67-	=67-	=67-	=67-
!	!	!LO:TX:t=P:problem=kreska pseudotaktowa	!	!	!	!
2G\	.	1r	.	0ryy	2b-X\	.
2F\	.	.	.	.	2a\	.
!	!	!	!	!	!LO:TX:t=P:problem=kreska pseudotaktowa	!
2.E\	.	2r	.	.	1g	-men
!	!	!LO:TX:t=P::problem=kreska pseudotaktowa&colon;między nutą a kropką	!	!	!	!
.	.	2.cny\	a-	.	.	.
!LO:TX:t=P:problem=kreska pseudotaktowa	!	!	!	!	!	!
4C/	.	.	.	.	.	.
=68-	=68-	=68-	=68-	=68-	=68-	=68-
2.F\	.	.	.	0ryy	2r	.
.	.	4A\	.	.	.	.
*	*	*	*	*	*custos:bn	*
!	!	!	!	!	!LO:TX:t=P:problem=kreska pseudotaktowa	!
.	.	2.d\	.	.	2a\	a-
4D/	.	.	.	.	.	.
!	!	!	!	!	!LO:LB:g=original	!
2.G\	.	.	.	.	2bn\	.
.	.	4Bny\	.	.	.	.
!	!	!LO:TX:t=P:problem=kreska pseudotaktowa	!	!	!	!
.	.	2A\	.	.	4cc#X\	.
!	!	!	!	!	!LO:TX:t=P:problem=kreska pseudotaktowa	!
4F\	.	.	.	.	4a\	.
=69-	=69-	=69-	=69-	=69-	=69-	=69-
!LO:TX:t=P:problem=kreska pseudotaktowa	!	!	!	!	!	!
1E	.	1G	.	0ryy	2dd\	.
.	.	.	.	.	2cc#X\	.
2D,/	-men	2A,/	-men	.	2dd,\	-men
!	!	!LO:TX:t=P:problem=kreska pseudotaktowa	!	!	!LO:TX:t=P:problem=kreska pseudotaktowa	!
2D/	a-	2D/	a-	.	2f/	a-
=70-	=70-	=70-	=70-	=70-	=70-	=70-
2C/	.	4E/	.	0ryy	4g\	.
.	.	4F/	.	.	4a\	.
!LO:TX:t=P:problem=kreska pseudotaktowa	!	!	!	!	!	!
2BB-X/	.	4G/	.	.	4b-X\	.
.	.	4E/	.	.	4g\	.
2.AA/	.	2F/	.	.	4a\	.
.	.	.	.	.	4b-X\	.
*	*	*custos:B	*	*	*	*
!	!	!LO:TX:t=P:problem=kreska pseudotaktowa	!	!	!	!
.	.	2A\	.	.	4ccny\	.
4FF/	.	.	.	.	4a\	.
!	!	!LO:LB:g=original	!	!	!	!
=71-	=71-	=71-	=71-	=71-	=71-	=71-
2.BB-X/	.	4B-X\	.	0ryy	2dd\	.
.	.	4c\	.	.	.	.
!	!	!	!	!	!LO:TX:t=P:problem=kreska pseudotaktowa	!
.	.	4d\	.	.	2dd\	-men
4GG/	.	4B-\	.	.	.	.
!	!	!	!	!	!LO:TX:t=P:problem=kreska pseudotaktowa	!
!	!	!	!	!	!LO:TX:a:t=1.	!
2.C/	.	4c\	.	.	1r	.
.	.	4d\	.	.	.	.
.	.	4e\	.	.	.	.
!LO:TX:t=P:problem=kreska pseudotaktowa	!	!LO:TX:t=P:problem=kreska pseudotaktowa	!	!	!	!
4AA/	.	4c\	.	.	.	.
=72-	=72-	=72-	=72-	=72-	=72-	=72-
2D/	-men	2d\	.	0ryy	2.a\	a-
1D	a-	2A,\	-men	.	.	.
.	.	.	.	.	4f/	.
*	*	*	*ij	*	*	*
.	.	(2G/	a-	.	2.g/	.
!LO:TX:t=P:problem=kreska pseudotaktowa	!	!LO:TX:t=P:problem=kreska pseudotaktowa	!	!	!	!
2C#X/	.	2A/)	.	.	.	.
.	.	.	.	.	4e/	.
=73-	=73-	=73-	=73-	=73-	=73-	=73-
2D\	.	2D,/	-men	0ryy	2a\	.
*	*	*	*Xij	*	*	*
!	!	!	!	!	!LO:TX:t=P:problem=kreska pseudotaktowa	!
2D\	-men	2F/	a-	.	2a\	-men
!	!	!	!	!	!LO:TX:t=P:problem=kreska pseudotaktowa	!
4E\	a-	4G/	.	.	1rdd	.
4F\	.	4A/	.	.	.	.
4G\	.	4Bny/	.	.	.	.
*custos:F	*	*	*	*	*	*
!LO:TX:t=P:problem=kreska pseudotaktowa	!	!LO:TX:t=P:problem=kreska pseudotaktowa	!	!	!	!
4E\	.	4G/	.	.	.	.
!LO:LB:g=original	!	!	!	!	!	!
=74-	=74-	=74-	=74-	=74-	=74-	=74-
4F\	.	4A\	.	0ryy	2r	.
4G\	.	4B\	.	.	.	.
4A\	.	4c\	.	.	2a\	a-
!LO:TX:t=P:problem=kreska pseudotaktowa	!	!	!	!	!	!
4F\	.	4A\	.	.	.	.
4G\	.	2d\	.	.	4bn\	.
4A\	.	.	.	.	4cc\	.
!	!	!LO:TX:t=P:problem=kreska pseudotaktowa	!	!	!	!
4B-X\	.	2d\	-men	.	4dd\	.
!LO:TX:t=P:problem=kreska pseudotaktowa	!	!	!	!	!LO:TX:t=P:problem=kreska pseudotaktowa	!
4G\	.	.	.	.	4b\	.
=75-	=75-	=75-	=75-	=75-	=75-	=75-
2A,\	-men	2r	.	0ryy	4cc\	.
.	.	.	.	.	4dd\	.
!LO:TX:t=P:problem=kreska pseudotaktowa	!	!	!	!	!	!
2A\	a-	2c\	a-	.	4ee\	.
.	.	.	.	.	4cc\	.
2G\	.	2B-X\	.	.	2dd\	.
!LO:TX:t=P:problem=kreska pseudotaktowa	!	!	!	!	!	!
2F\	.	2A\	.	.	2dd\	-men
=76-	=76-	=76-	=76-	=76-	=76-	=76-
2.E\	.	2G/	.	0ryy	2cc\	a-
!	!	!LO:TX:t=P:problem=kreska pseudotaktowa	!	!	!	!
.	.	2G/	men	.	2b-X\	.
4Cny/	.	.	.	.	.	.
2.F\	.	2r	.	.	2a\	.
!	!	!	!	!	!LO:TX:t=P:problem=kreska pseudotaktowa	!
.	.	2A\	a-	.	2a\	-men
!LO:TX:t=P:problem=kreska pseudotaktowa	!	!	!	!	!	!
4D/	.	.	.	.	.	.
=77-	=77-	=77-	=77-	=77-	=77-	=77-
!	!	!	!	!	!LO:TX:t=P:problem=kreska pseudotaktowa	!
!	!	!	!	!	!LO:TX:a:t=1.	!
2.G\	.	4Bn\	.	0ryy	1rdd	.
.	.	4c#X\	.	.	.	.
.	.	4d\	.	.	.	.
4F\	.	4B\	.	.	.	.
2E\	.	2c#X\	.	.	2r	.
*	*	*	*	*	*custos:e	*
!LO:TX:t=P:problem=kreska pseudotaktowa	!	!LO:TX:t=P:problem=kreska pseudotaktowa	!	!	!LO:TX:t=P:problem=kreska pseudotaktowa	!
2D/	.	2d\	-men	.	2d/	a-
!	!	!	!	!	!LO:LB:g=original	!
=78-	=78-	=78-	=78-	=78-	=78-	=78-
!LO:TX:t=P:problem=kreska pseudotaktowa	!	!	!	!	!	!
(1AA	.	4c#X\	a-	0ryy	4e/	.
.	.	4A\	.	.	4f/	.
.	.	2d\	.	.	4g/	.
.	.	.	.	.	4f/	.
1AA)	.	1A	.	.	1e	.
=79-	=79-	=79-	=79-	=79-	=79-	=79-
!LO:TX:t=P:problem=podwójna kreska pseudotaktowa	!	!LO:TX:t=P:problem=kreska pseudotaktowa	!	!	!LO:TX:t=P:problem=kreska pseudotaktowa	!
0Dl;	-men	0A;	-men	0ryy	0f#X;	-men
=80-	=80-	=80-	=80-	=80-	=80-	=80-
0G	a-	0B-X	a-	0ryy	0g	a-
=81-	=81-	=81-	=81-	=81-	=81-	=81-
0Dl;	-men	0Al;	-men	0ryy	0f#Xl;	-men.
==	==	==	==	==	==	==
*-	*-	*-	*-	*-	*-	*-
!!!system-decoration: [s1,s2,s3,s4]
!!!RDF**kern: l = terminal long
!!!ENC: Marta Lawrence
!!!END: 2021-03-19
!!!ENC: Tomasz Grochalski
!!!END: 2021-03-04
!!!YEC: Copyright 2022 Narodowy Instytut Fryderyka Chopina (https://polishscores.org)
!!!YEM: License CC-BY-4.0 (https://creativecommons.org/licenses/by/4.0)
